assets/images/contact-bg.svg

<svg width="665" height="807" fill="none" xmlns="http://www.w3.org/2000/svg"><mask id="a" style="mask-type:luminance" maskUnits="userSpaceOnUse" x="-97" y="0" width="860" height="809"><path d="M762.316 0H-96.313v808.187h858.629V0Z" fill="#fff"/></mask><g mask="url(#a)"><path d="M762.316.001H-96.313v808.187h858.629V.001Z" fill="#D9D9D9"/><g opacity=".5"><path d="m761.53 811.343-364.987.002L548.753.001 761.53 0v811.343Z" fill="#F2F2F2"/><path d="M452.675 356.29h.744l-84.632 451.899h-.744l84.632-451.899Zm-2.539 0h.744l-84.628 451.899h-.748l84.632-451.899Zm-2.535 0h.748l-84.632 451.899h-.748l84.632-451.899Zm-2.536 0h.745l-84.632 451.899h-.744l84.631-451.899Zm-2.535 0h.744l-84.631 451.899h-.745L442.53 356.29Zm-2.539 0h.748l-84.631 451.899h-.749l84.632-451.899Zm-2.535 0h.748l-84.632 451.899h-.744l84.628-451.899Zm-2.535 0h.744l-84.632 451.899h-.744l84.632-451.899Zm-2.539 0h.744l-84.628 451.899h-.748l84.632-451.899Zm-2.535 0h.748l-84.632 451.899h-.748l84.632-451.899Zm-2.536 0h.745l-84.632 451.899h-.744l84.631-451.899Zm-2.535 0h.744l-84.631 451.899h-.744l84.631-451.899Zm-2.539 0h.748l-84.631 451.899h-.749l84.632-451.899Zm-2.539 0h.748l-84.631 451.899h-.745l84.628-451.899Zm-2.531 0h.744l-84.632 451.899h-.744l84.632-451.899Zm-2.539 0h.748l-84.632 451.899h-.748l84.632-451.899Zm-2.535 0h.748l-84.632 451.899h-.744l84.628-451.899Zm-2.535 0h.744L325.67 808.189h-.744l84.632-451.899Zm-2.54 0h.745l-84.628 451.899h-.748l84.631-451.899Zm-2.535 0h.748L320.6 808.189h-.748l84.631-451.899Zm-2.535 0h.744l-84.631 451.899h-.745l84.632-451.899Zm-2.535 0h.744l-84.632 451.899h-.744l84.632-451.899Zm-2.539 0h.748L312.99 808.189h-.748l84.632-451.899Zm-2.535 0h.748l-84.632 451.899h-.744l84.628-451.899Zm-2.535 0h.744l-84.632 451.899h-.744l84.632-451.899Zm-2.539 0h.744l-84.628 451.899h-.748l84.632-451.899Zm-2.536 0h.749l-84.632 451.899h-.748l84.631-451.899Zm-2.535 0h.744l-84.631 451.899h-.745l84.632-451.899Zm-2.535 0h.744l-84.63 451.899h-.746l84.632-451.899Zm-2.541 0h.749l-84.633 451.899h-.746l84.63-451.899ZM537.39-95.61h.744l-84.632 451.9h-.744l84.632-451.9ZM534.854-95.61h.745l-84.628 451.9h-.748l84.631-451.9Zm-2.539 0h.749l-84.632 451.9h-.748l84.631-451.9Zm-2.535 0h.744l-84.631 451.9h-.745l84.632-451.9Zm-2.535 0h.744l-84.631 451.9h-.745l84.632-451.9Zm-2.539 0h.748l-84.632 451.9h-.748l84.632-451.9Zm-2.535 0h.748l-84.632 451.9h-.744l84.628-451.9Zm-2.535 0h.744l-84.632 451.9h-.744l84.632-451.9Zm-2.539 0h.744l-84.628 451.9h-.748l84.632-451.9Zm-2.536 0h.749l-84.632 451.9h-.748l84.631-451.9Zm-2.535 0h.745l-84.632 451.9h-.744l84.631-451.9Zm-2.535 0h.744l-84.631 451.9h-.745l84.632-451.9Zm-2.539 0h.748l-84.631 451.9h-.749l84.632-451.9Zm-2.539 0h.748l-84.632 451.9h-.744l84.628-451.9Zm-2.531 0h.744l-84.632 451.9h-.744l84.632-451.9Zm-2.539 0h.748l-84.632 451.9h-.748l84.632-451.9Zm-2.536 0h.749l-84.632 451.9h-.744l84.627-451.9Zm-2.535 0h.745l-84.632 451.9h-.744l84.631-451.9Zm-2.539 0h.745l-84.628 451.9h-.748l84.631-451.9Zm-2.535 0h.748l-84.631 451.9h-.749l84.632-451.9Zm-2.535 0h.744l-84.632 451.9h-.744l84.632-451.9Zm-2.535 0h.744l-84.632 451.9h-.744l84.632-451.9Zm-2.539 0h.748l-84.632 451.9h-.748l84.632-451.9Zm-2.539 0h.748l-84.632 451.9h-.744l84.628-451.9Zm-2.532 0h.745l-84.632 451.9h-.744l84.631-451.9Zm-2.539 0h.745l-84.628 451.9h-.748l84.631-451.9Zm-2.535 0h.748l-84.631 451.9h-.749l84.632-451.9Zm-2.535 0h.744l-84.631 451.9h-.745l84.632-451.9Zm-2.535 0h.744l-84.628 451.9h-.748l84.632-451.9Zm-2.539 0h.748l-84.632 451.9h-.748l84.632-451.9Z" fill="#BDBDBD"/><path opacity=".6" fill-rule="evenodd" clip-rule="evenodd" d="M-14.803 526.016h-.674l140.502-750.612h.673L-14.803 526.016Zm2.29 0h-.674l140.502-750.612h.673L-12.513 526.016Zm2.29 0h-.673l140.501-750.612h.673L-10.223 526.016Zm2.29 0h-.673l140.501-750.612h.673L-7.933 526.016Zm2.29 0h-.674l140.502-750.612h.673l-140.5 750.612Zm2.29 0h-.674l140.502-750.612h.673l-140.5 750.612Zm2.29 0h-.674l140.502-750.612h.673l-140.5 750.612Zm2.29 0H.554l140.501-750.612h.674L1.227 526.016Zm2.29 0h-.673l140.501-750.612h.674L3.517 526.016Zm2.29 0h-.673l140.501-750.612h.673L5.808 526.016Zm2.29 0h-.673l140.501-750.612h.673L8.098 526.016Zm2.29 0h-.674l140.502-750.612h.673l-140.5 750.612Zm2.29 0h-.673l140.501-750.612h.673l-140.5 750.612Zm2.29 0h-.673l140.501-750.612h.674L14.967 526.016Zm2.29 0h-.673l140.501-750.612h.674L17.257 526.016Zm2.29 0h-.673l140.501-750.612h.674L19.547 526.016Zm2.29 0h-.673l140.501-750.612h.673l-140.5 750.612Zm2.29 0h-.673l140.501-750.612h.673l-140.5 750.612Zm2.29 0h-.673l140.501-750.612h.674L26.417 526.016Zm2.29 0h-.673l140.501-750.612h.674L28.707 526.016Zm2.29 0h-.673l140.501-750.612h.674L30.998 526.016Zm2.29 0h-.673l140.501-750.612h.674L33.287 526.016Zm2.29 0h-.673l140.501-750.612h.674L35.577 526.016Zm2.29 0h-.673l140.501-750.612h.674L37.867 526.016Zm2.29 0h-.673l140.501-750.612h.674L40.157 526.016Zm2.29 0h-.673l140.501-750.612h.674L42.447 526.016Zm2.29 0h-.673l140.501-750.612h.674L44.737 526.016Zm2.29 0h-.673l140.501-750.612h.674L47.028 526.016Zm2.29 0h-.673l140.501-750.612h.674L49.317 526.016Zm2.29 0h-.673l140.501-750.612h.674L51.607 526.016Zm2.29 0h-.673l140.501-750.612h.674L53.897 526.016Zm2.29 0h-.673l140.501-750.612h.674L56.188 526.016Zm2.29 0h-.673l140.501-750.612h.674L58.477 526.016Zm2.29 0h-.673l140.501-750.612h.674L60.768 526.016Zm2.29 0h-.673l140.501-750.612h.674L63.058 526.016Zm2.29 0h-.673l140.501-750.612h.674L65.348 526.016Zm2.29 0h-.673l140.501-750.612h.674L67.637 526.016Zm2.29 0h-.673l140.501-750.612h.674L69.927 526.016Zm2.29 0h-.673l140.501-750.612h.674L72.218 526.016Zm2.29 0h-.673l140.502-750.612h.673L74.508 526.016Zm2.29 0h-.673l140.502-750.612h.673L76.798 526.016Zm2.29 0h-.673l140.501-750.612h.674L79.088 526.016Zm2.29 0h-.673l140.501-750.612h.674L81.378 526.016Z" fill="#BEBEBE"/><path d="M320.1-506.017h-1.326L18.059 1100.52h1.325L320.1-506.017Zm4.503 0h-1.322L22.562 1100.52h1.326L324.603-506.017Zm4.51 0h-1.326L27.07 1100.52h1.326L329.113-506.017Zm4.507 0h-1.326L31.578 1100.52h1.326L333.62-506.017Zm4.507 0H336.8L36.086 1100.52h1.325L338.127-506.017Zm4.506 0h-1.326L40.59 1100.52h1.325L342.633-506.017Zm4.503 0h-1.326L45.094 1100.52h1.325L347.136-506.017ZM351.257-506.017h-1.326L49.215 1100.52h1.325L351.257-506.017Zm4.503 0h-1.326L53.719 1100.52h1.325L355.76-506.017Zm4.506 0h-1.322L58.227 1100.52h1.325L360.266-506.017Zm4.511 0h-1.326L62.734 1100.52h1.326L364.777-506.017Zm4.507 0h-1.327L67.242 1100.52h1.325L369.284-506.017Zm4.502 0h-1.322L71.746 1100.52h1.325L373.786-506.017Zm4.507 0h-1.326L76.25 1100.52h1.325L378.293-506.017Z" opacity=".6" fill="#BEBEBE"/><path d="M23.223-8.116h-28.07l-152.825 816.449h28.07L23.223-8.117Z" fill="#E0E0E0"/><path d="M20.43-8.117h2.793l-152.825 816.45h-2.793L20.43-8.117Z" fill="#E0E0E0"/><path d="M.408-8.116h-.673L-153.09 808.333h.674L.408-8.117Zm2.286-.001H2.02l-152.825 816.45h.674L2.694-8.117Zm2.293 0h-.673l-152.826 816.45h.674L4.987-8.117Zm2.289 0h-.673l-152.826 816.45h.674L7.276-8.117Zm2.293 0h-.674l-152.825 816.45h.674L9.569-8.117Z" fill="#F2F2F2"/><path d="M834.212 0H593.503L440.68 816.45h240.705L834.212 0ZM586.774 0h-13.658L420.293 816.45h13.657L586.774 0Z" fill="#D9D9D9"/></g></g></svg>

<svg width="665" height="807" fill="none" xmlns="http://www.w3.org/2000/svg"><mask id="a" style="mask-type:luminance" maskUnits="userSpaceOnUse" x="-97" y="0" width="860" height="809"><path d="M762.316 0H-96.313v808.187h858.629V0Z" fill="#fff"/></mask><g mask="url(#a)"><path d="M762.316.001H-96.313v808.187h858.629V.001Z" fill="#D9D9D9"/><g opacity=".5"><path d="m761.53 811.343-364.987.002L548.753.001 761.53 0v811.343Z" fill="#F2F2F2"/><path d="M452.675 356.29h.744l-84.632 451.899h-.744l84.632-451.899ZM450.136 356.29h.744l-84.628 451.899h-.748l84.632-451.899ZM447.601 356.29h.748l-84.632 451.899h-.748l84.632-451.899ZM445.065 356.29h.745l-84.632 451.899h-.744l84.631-451.899ZM442.53 356.29h.744l-84.631 451.899h-.745L442.53 356.29ZM439.991 356.29h.748l-84.631 451.899h-.749l84.632-451.899ZM437.456 356.29h.748l-84.632 451.899h-.744l84.628-451.899ZM434.921 356.29h.744l-84.632 451.899h-.744l84.632-451.899ZM432.382 356.29h.744l-84.628 451.899h-.748l84.632-451.899ZM429.847 356.29h.748l-84.632 451.899h-.748l84.632-451.899ZM427.311 356.29h.745l-84.632 451.899h-.744l84.631-451.899ZM424.776 356.29h.744l-84.631 451.899h-.744l84.631-451.899ZM422.237 356.29h.748l-84.631 451.899h-.749l84.632-451.899ZM419.698 356.29h.748l-84.631 451.899h-.745l84.628-451.899ZM417.167 356.29h.744l-84.632 451.899h-.744l84.632-451.899ZM414.628 356.29h.748l-84.632 451.899h-.748l84.632-451.899ZM412.093 356.29h.748l-84.632 451.899h-.744l84.628-451.899ZM409.558 356.29h.744L325.67 808.189h-.744l84.632-451.899ZM407.018 356.29h.745l-84.628 451.899h-.748l84.631-451.899ZM404.483 356.29h.748L320.6 808.189h-.748l84.631-451.899ZM401.948 356.29h.744l-84.631 451.899h-.745l84.632-451.899ZM399.413 356.29h.744l-84.632 451.899h-.744l84.632-451.899ZM396.874 356.29h.748L312.99 808.189h-.748l84.632-451.899ZM394.339 356.29h.748l-84.632 451.899h-.744l84.628-451.899ZM391.804 356.29h.744l-84.632 451.899h-.744l84.632-451.899ZM389.265 356.29h.744l-84.628 451.899h-.748l84.632-451.899ZM386.729 356.29h.749l-84.632 451.899h-.748l84.631-451.899ZM384.194 356.29h.744l-84.631 451.899h-.745l84.632-451.899ZM381.659 356.29h.744l-84.63 451.899h-.746l84.632-451.899ZM379.118 356.29h.749l-84.633 451.899h-.746l84.63-451.899ZM537.39-95.61h.744L453.502 356.29h-.744L537.39-95.61Z" fill="#BDBDBD"/><path d="M534.854-95.61h.745L450.971 356.29h-.748L534.854-95.61ZM532.315-95.61h.749L448.432 356.29h-.748L532.315-95.61ZM529.78-95.61h.744L445.893 356.29h-.745L529.78-95.61ZM527.245-95.61h.744L443.358 356.29h-.745L527.245-95.61ZM524.706-95.61h.748L440.822 356.29h-.748L524.706-95.61ZM522.171-95.61h.748L438.287 356.29h-.744L522.171-95.61ZM519.636-95.61h.744L435.748 356.29h-.744L519.636-95.61ZM517.097-95.61h.744L433.213 356.29h-.748L517.097-95.61ZM514.561-95.61h.749L430.678 356.29h-.748L514.561-95.61ZM512.026-95.61h.745L428.139 356.29h-.744L512.026-95.61ZM509.491-95.61h.744L425.604 356.29h-.745L509.491-95.61ZM506.952-95.61h.748L423.069 356.29h-.749L506.952-95.61ZM504.413-95.61h.748L420.529 356.29h-.744L504.413-95.61ZM501.882-95.61h.744L417.994 356.29h-.744L501.882-95.61ZM499.343-95.61h.748L415.459 356.29h-.748L499.343-95.61ZM496.807-95.61h.749L412.924 356.29h-.744L496.807-95.61ZM494.272-95.61h.745L410.385 356.29h-.744L494.272-95.61ZM491.733-95.61h.745L407.85 356.29h-.748L491.733-95.61ZM489.198-95.61h.748L405.315 356.29h-.749L489.198-95.61ZM486.663-95.61h.744L402.775 356.29h-.744L486.663-95.61ZM484.128-95.61h.744L400.24 356.29h-.744L484.128-95.61ZM481.589-95.61h.748L397.705 356.29h-.748L481.589-95.61ZM479.05-95.61h.748L395.166 356.29h-.744L479.05-95.61ZM476.518-95.61h.745L392.631 356.29h-.744L476.518-95.61ZM473.979-95.61h.745L390.096 356.29h-.748L473.979-95.61ZM471.444-95.61h.748L387.561 356.29h-.749L471.444-95.61ZM468.909-95.61h.744L385.022 356.29h-.745L468.909-95.61ZM466.374-95.61h.744L382.49 356.29h-.748L466.374-95.61ZM463.835-95.61h.748L379.951 356.29h-.748L463.835-95.61Z" fill="#BDBDBD"/><path opacity=".6" fill-rule="evenodd" clip-rule="evenodd" d="M-14.803 526.016h-.674l140.502-750.612h.673L-14.803 526.016Zm2.29 0h-.674l140.502-750.612h.673L-12.513 526.016Zm2.29 0h-.673l140.501-750.612h.673L-10.223 526.016Zm2.29 0h-.673l140.501-750.612h.673L-7.933 526.016Zm2.29 0h-.674l140.502-750.612h.673l-140.5 750.612Zm2.29 0h-.674l140.502-750.612h.673l-140.5 750.612Zm2.29 0h-.674l140.502-750.612h.673l-140.5 750.612Zm2.29 0H.554l140.501-750.612h.674L1.227 526.016Zm2.29 0h-.673l140.501-750.612h.674L3.517 526.016Zm2.29 0h-.673l140.501-750.612h.673L5.808 526.016Zm2.29 0h-.673l140.501-750.612h.673L8.098 526.016Zm2.29 0h-.674l140.502-750.612h.673l-140.5 750.612Zm2.29 0h-.673l140.501-750.612h.673l-140.5 750.612Zm2.29 0h-.673l140.501-750.612h.674L14.967 526.016Zm2.29 0h-.673l140.501-750.612h.674L17.257 526.016Zm2.29 0h-.673l140.501-750.612h.674L19.547 526.016Zm2.29 0h-.673l140.501-750.612h.673l-140.5 750.612Zm2.29 0h-.673l140.501-750.612h.673l-140.5 750.612Zm2.29 0h-.673l140.501-750.612h.674L26.417 526.016Zm2.29 0h-.673l140.501-750.612h.674L28.707 526.016Zm2.29 0h-.673l140.501-750.612h.674L30.998 526.016Zm2.29 0h-.673l140.501-750.612h.674L33.287 526.016Zm2.29 0h-.673l140.501-750.612h.674L35.577 526.016Zm2.29 0h-.673l140.501-750.612h.674L37.867 526.016Zm2.29 0h-.673l140.501-750.612h.674L40.157 526.016Zm2.29 0h-.673l140.501-750.612h.674L42.447 526.016Zm2.29 0h-.673l140.501-750.612h.674L44.737 526.016Zm2.29 0h-.673l140.501-750.612h.674L47.028 526.016Zm2.29 0h-.673l140.501-750.612h.674L49.317 526.016Zm2.29 0h-.673l140.501-750.612h.674L51.607 526.016Zm2.29 0h-.673l140.501-750.612h.674L53.897 526.016Zm2.29 0h-.673l140.501-750.612h.674L56.188 526.016Zm2.29 0h-.673l140.501-750.612h.674L58.477 526.016Zm2.29 0h-.673l140.501-750.612h.674L60.768 526.016Zm2.29 0h-.673l140.501-750.612h.674L63.058 526.016Zm2.29 0h-.673l140.501-750.612h.674L65.348 526.016Zm2.29 0h-.673l140.501-750.612h.674L67.637 526.016Zm2.29 0h-.673l140.501-750.612h.674L69.927 526.016Zm2.29 0h-.673l140.501-750.612h.674L72.218 526.016Zm2.29 0h-.673l140.502-750.612h.673L74.508 526.016Zm2.29 0h-.673l140.502-750.612h.673L76.798 526.016Zm2.29 0h-.673l140.501-750.612h.674L79.088 526.016Zm2.29 0h-.673l140.501-750.612h.674L81.378 526.016Z" fill="#BEBEBE"/><g opacity=".6" fill="#BEBEBE"><path d="M320.1-506.017h-1.326L18.059 1100.52h1.325L320.1-506.017ZM324.603-506.017h-1.322L22.562 1100.52h1.326L324.603-506.017ZM329.113-506.017h-1.326L27.07 1100.52h1.326L329.113-506.017ZM333.62-506.017h-1.326L31.578 1100.52h1.326L333.62-506.017ZM338.127-506.017H336.8L36.086 1100.52h1.325L338.127-506.017ZM342.633-506.017h-1.326L40.59 1100.52h1.325L342.633-506.017ZM347.136-506.017h-1.326L45.094 1100.52h1.325L347.136-506.017Z"/></g><g opacity=".6" fill="#BEBEBE"><path d="M351.257-506.017h-1.326L49.215 1100.52h1.325L351.257-506.017ZM355.76-506.017h-1.326L53.719 1100.52h1.325L355.76-506.017ZM360.266-506.017h-1.322L58.227 1100.52h1.325L360.266-506.017ZM364.777-506.017h-1.326L62.734 1100.52h1.326L364.777-506.017ZM369.284-506.017h-1.327L67.242 1100.52h1.325L369.284-506.017ZM373.786-506.017h-1.322L71.746 1100.52h1.325L373.786-506.017ZM378.293-506.017h-1.326L76.25 1100.52h1.325L378.293-506.017Z"/></g><path d="M23.223-8.116h-28.07l-152.825 816.449h28.07L23.223-8.117Z" fill="#E0E0E0"/><path d="M20.43-8.117h2.793l-152.825 816.45h-2.793L20.43-8.117Z" fill="#E0E0E0"/><path d="M.408-8.116h-.673L-153.09 808.333h.674L.408-8.117ZM2.694-8.117H2.02l-152.825 816.45h.674L2.694-8.117ZM4.987-8.117h-.673l-152.826 816.45h.674L4.987-8.117ZM7.276-8.117h-.673l-152.826 816.45h.674L7.276-8.117ZM9.569-8.117h-.674l-152.825 816.45h.674L9.569-8.117Z" fill="#F2F2F2"/><path d="M834.212 0H593.503L440.68 816.45h240.705L834.212 0ZM586.774 0h-13.658L420.293 816.45h13.657L586.774 0Z" fill="#D9D9D9"/></g></g></svg>
